X: 0802
T: Peggy's Love
P: Little Peggy's Love
C:Wm. Marshall
R:Strathspey (8x32)
B:RSCDS 8-2
Z:Anselm Lingnau <anselm@strathspey.org>
M:4/4
L:1/8
K:A
A|"A"E<A A>B "F#m"c>B c<A|"Bm"F<B B>c "E7"d2 de|\
  "D"f<a "A"e>c "Bm"B>A "E7"B<c|"A"E>A "E7"G>B "A"A3 A|
  "A"E<A A>B "F#m"c>B c<A|"Bm"F<B B>c "E7"d2 de|\
  "D"f<a "A"e>c "Bm"B>A "E7"B<c|"A"E>A "E7"G>B "A"A3||
e|"A"a>g a<c' "E7"a>g a<c'|"B7"a>b a>c' "E"b3 c'|\
  "A"a>e e>c "D"f>d' c'>b|"A"a>f e>c "E7"B3 A|
  "A"E<A A>B "F#m"c>B c<A|"Bm"F<B B>c "E7"d2 de|\
  "D"f<a "A"e>c "Bm"B>A "E7"B<c|"A"E>A "E7"G>B "A"A3|]
%%center Book08/0802-Peggys_Love-AL.abc

%%sep 1 1 500
%%sep 1 1 500

